dist/svg/ie.svg

<svg width="16" height="16" viewBox="0 0 16 16" fill="rgb(34, 34, 34)" xmlns="http://www.w3.org/2000/svg"><title>IE</title><path d="M16 9.00006C16 8.70006 16 8.40006 16 8.20006C16 6.90006 15.7 5.70006 15 4.60006C15.6 2.90006 15.6 1.50006 14.8 0.60006C14 -0.199941 11.8 -0.0999405 9.29997 1.00006C9.09997 1.00006 8.89997 1.00006 8.69997 1.00006C5.49997 0.800059 2.49997 2.90006 1.59997 6.00006C2.59997 4.70006 3.89997 3.70006 5.49997 3.30006C5.29997 3.40006 4.49997 4.20006 4.39997 4.40006C0.499972 8.30006 -0.800028 13.5001 0.599972 14.8001C1.59997 15.8001 3.49997 15.6001 5.59997 14.6001C9.19997 16.4001 13.5 15.0001 15.3 11.4001C15.5 11.1001 15.6 10.8001 15.7 10.4001H11.8C11 11.9001 8.99997 12.5001 7.49997 11.7001C6.99997 11.4001 6.49997 11.0001 6.19997 10.4001C5.89997 10.0001 5.69997 9.50006 5.69997 9.00006H16ZM5.69997 7.00006C5.79997 5.40006 7.09997 4.20006 8.69997 4.20006C10.3 4.20006 11.6 5.40006 11.7 7.00006H5.69997ZM14.7 1.30006C15.3 1.90006 15.2 2.90006 14.8 4.20006C14 3.00006 12.8 2.00006 11.4 1.40006C12.9 0.800059 14.1 0.700059 14.7 1.30006ZM1.49997 14.6001C0.799972 13.9001 0.999972 12.4001 1.89997 10.6001C2.49997 12.2001 3.49997 13.5001 4.99997 14.4001C3.49997 15.1001 2.19997 15.2001 1.49997 14.6001Z" fill="rgb(34, 34, 34)" fill-opacity="1.00"/></svg>

<!-- Generated by Trend Micro Style Portal -->
<svg version="1.1" xmlns="http://www.w3.org/2000/svg" width="16" height="16" viewBox="0 0 16 16">
  <title>ie</title>
  <path fill="rgb(34,34,34)" d="M16 9c0-0.3 0-0.6 0-0.8 0-1.3-0.3-2.5-1-3.6 0.6-1.7 0.6-3.1-0.2-4-0.8-0.8-3-0.7-5.5 0.4-0.2 0-0.4 0-0.6 0-3.2-0.2-6.2 1.9-7.1 5 1-1.3 2.3-2.3 3.9-2.7-0.2 0.1-1 0.9-1.1 1.1-3.9 3.9-5.2 9.1-3.8 10.4 1 1 2.9 0.8 5-0.2 3.6 1.8 7.9 0.4 9.7-3.2 0.2-0.3 0.3-0.6 0.4-1h-3.9c-0.8 1.5-2.8 2.1-4.3 1.3-0.5-0.3-1-0.7-1.3-1.3-0.3-0.4-0.5-0.9-0.5-1.4v0h10.3zM5.7 7c0.1-1.6 1.4-2.8 3-2.8s2.9 1.2 3 2.8h-6zM14.7 1.3c0.6 0.6 0.5 1.6 0.1 2.9-0.8-1.2-2-2.2-3.4-2.8 1.5-0.6 2.7-0.7 3.3-0.1zM1.5 14.6c-0.7-0.7-0.5-2.2 0.4-4 0.6 1.6 1.6 2.9 3.1 3.8-1.5 0.7-2.8 0.8-3.5 0.2z"></path>
</svg>
